X: 59
T: 42nd Highlanders Farewell
R: reel
M: 4/4
K: Bminor
M:2/4
f/e/|dBB>c|dBB>c|dc/B/ e/d/c/B/|A2 AB/c/|dBB>c|dBBc|
d>efd|B2 Bc|d>efe|f>ede|fe/d/ e/d/c/B/|A2 Ac|
B>cde|1 f>edc|a>f ed/c/|B2 f:|2 fdef|d>BcA|B2 B||
c|dBB>c|dBBf|dB e/d/c/B/|A2 AB/c/|dBB>c|
dB Bf/e/|a>fac|B2 B>c|d>efa|f>ede|
f>edB|A2 Ad/c/|B>cde|f>edc|a>f ed/c/|B3||

